X:155
T: Summerhill #3 (polka)
C: S.O Driscoll
Z: B.Black
M: 2/4
L: 1/8
R: polka
K: D
A | df ed | c/2B/2A AF | GB AG | FD DE |
FD FG | Ad dA | BA Bc | d3 :|
e | fe/2f/2 gf | ec A>B | (3cBA eA | e>d cB |
fe/2f/2 gf | ec A>B | (3cBA eA | d3 :|
